icons/svg/road_shields/h_white_rounded_rectangle_2_road_shield.svg

<?xml version="1.0" encoding="UTF-8" standalone="no"?>
<!-- Generator: Adobe Illustrator 16.0.4, SVG Export Plug-In . SVG Version: 6.00 Build 0)  -->

<svg
   xmlns:dc="http://purl.org/dc/elements/1.1/"
   xmlns:cc="http://creativecommons.org/ns#"
   xmlns:rdf="http://www.w3.org/1999/02/22-rdf-syntax-ns#"
   xmlns:svg="http://www.w3.org/2000/svg"
   xmlns="http://www.w3.org/2000/svg"
   xmlns:sodipodi="http://sodipodi.sourceforge.net/DTD/sodipodi-0.dtd"
   xmlns:inkscape="http://www.inkscape.org/namespaces/inkscape"
   version="1.1"
   id="Слой_1"
   x="0px"
   y="0px"
   width="28"
   height="25"
   viewBox="0 0 28 25"
   enable-background="new 0 0 17.143 17.17"
   xml:space="preserve"
   inkscape:version="0.91 r13725"
   sodipodi:docname="h_white_rounded_rectangle_2_road_shield.svg"><metadata
     id="metadata13"><rdf:RDF><cc:Work
         rdf:about=""><dc:format>image/svg+xml</dc:format><dc:type
           rdf:resource="http://purl.org/dc/dcmitype/StillImage" /><dc:title></dc:title></cc:Work></rdf:RDF></metadata><defs
     id="defs11" /><sodipodi:namedview
     pagecolor="#ffffff"
     bordercolor="#666666"
     borderopacity="1"
     objecttolerance="10"
     gridtolerance="10"
     guidetolerance="10"
     inkscape:pageopacity="0"
     inkscape:pageshadow="2"
     inkscape:window-width="1920"
     inkscape:window-height="1006"
     id="namedview9"
     showgrid="false"
     inkscape:zoom="19.43823"
     inkscape:cx="13.190775"
     inkscape:cy="16.291962"
     inkscape:window-x="1920"
     inkscape:window-y="0"
     inkscape:window-maximized="1"
     inkscape:current-layer="Слой_1" /><path
     style="color:#000000;clip-rule:evenodd;display:inline;overflow:visible;visibility:visible;opacity:0.70800003;isolation:auto;mix-blend-mode:normal;color-interpolation:sRGB;color-interpolation-filters:linearRGB;solid-color:#000000;solid-opacity:1;fill:#515151;fill-opacity:1;fill-rule:evenodd;stroke:none;stroke-width:0.77756;stroke-linecap:butt;stroke-linejoin:miter;stroke-miterlimit:4;stroke-dasharray:none;stroke-dashoffset:0;stroke-opacity:1;marker:none;color-rendering:auto;image-rendering:auto;shape-rendering:auto;text-rendering:auto;enable-background:accumulate"
     d="m 8.2235124,4.3359377 c -4.5017152,0 -8.16210948,3.6627366 -8.16210948,8.1640623 0,4.501326 3.66039458,8.164062 8.16210948,8.164062 l 11.5529746,0 c 4.501715,0 8.16211,-3.662736 8.16211,-8.164062 0,-4.5013258 -3.660395,-8.1640622 -8.16211,-8.1640622 z"
     id="path4198"
     inkscape:connector-curvature="0"
     sodipodi:nodetypes="sssssss" /><path
     style="color:#000000;clip-rule:evenodd;display:inline;overflow:visible;visibility:visible;opacity:1;isolation:auto;mix-blend-mode:normal;color-interpolation:sRGB;color-interpolation-filters:linearRGB;solid-color:#000000;solid-opacity:1;fill:#ffffff;fill-opacity:1;fill-rule:evenodd;stroke:none;stroke-width:1;stroke-linecap:butt;stroke-linejoin:miter;stroke-miterlimit:4;stroke-dasharray:none;stroke-dashoffset:0;stroke-opacity:1;marker:none;color-rendering:auto;image-rendering:auto;shape-rendering:auto;text-rendering:auto;enable-background:accumulate"
     d="m 8.2240496,5.4636237 11.4794534,0 c 3.898153,0 7.036377,3.1382241 7.036377,7.0363763 0,3.898153 -3.138224,7.036377 -7.036377,7.036377 l -11.4794534,0 c -3.8981528,0 -7.0363769,-3.138224 -7.0363769,-7.036377 0,-3.8981521 3.1382241,-7.0363762 7.0363769,-7.0363762 z"
     id="rect4135-8"
     inkscape:connector-curvature="0"
     sodipodi:nodetypes="sssssss" /></svg>

<svg width="28" height="25" viewBox="0 0 28 25" fill="none" xmlns="http://www.w3.org/2000/svg">
<path opacity="0.708" fill-rule="evenodd" clip-rule="evenodd" d="M8.22351 4.33594C3.7218 4.33594 0.0614033 7.99867 0.0614033 12.5C0.0614033 17.0013 3.7218 20.6641 8.22351 20.6641H19.7765C24.2782 20.6641 27.9386 17.0013 27.9386 12.5C27.9386 7.99867 24.2782 4.33594 19.7765 4.33594L8.22351 4.33594Z" fill="#515151"/>
<path fill-rule="evenodd" clip-rule="evenodd" d="M8.22405 5.46362H19.7035C23.6017 5.46362 26.7399 8.60185 26.7399 12.5C26.7399 16.3982 23.6017 19.5364 19.7035 19.5364H8.22405C4.3259 19.5364 1.18767 16.3982 1.18767 12.5C1.18767 8.60185 4.3259 5.46362 8.22405 5.46362V5.46362Z" fill="white"/>
</svg>
